X: 25914
T: Maudabawn Chapel
R: reel
M: 4/4
K: Gmajor
|:G3D EGDB|G3d eBBA|G3B dG (3Bcd|eaag ea a2|
gabg efge|dedc Bc d2|(3efg fa gedB|AcBA GEED:|
|:E2 BE E2 BE|E2 BE AFDF|E3F G3B|AD (3FED ADFD|
EB B2 dB B2|BAFB ABde|f3d gfef|dBAF BEED:|

